symbols/web/mark_email_unread/materialsymbolsoutlined/mark_email_unread_wght300gradN25fill1_40px.svg

<svg xmlns="http://www.w3.org/2000/svg" height="40" width="40"><path d="M31.667 13.292q-1.792 0-3.063-1.25-1.271-1.25-1.271-3.084 0-1.791 1.271-3.062t3.063-1.271q1.791 0 3.062 1.271T36 8.958q0 1.834-1.271 3.084t-3.062 1.25ZM6.875 32.333q-1.042 0-1.771-.75-.729-.75-.729-1.75V10.167q0-1 .729-1.75t1.771-.75h17.25q-.083.5-.104 1-.021.5.062 1 .125 1.333.667 2.521.542 1.187 1.417 2.062L20 18.292 6.625 9.583l-.25 1.875L20 20.417l7.625-5.042q.875.625 1.896.937 1.021.313 2.146.313 1.083 0 2.083-.292 1-.291 1.875-.916v14.416q0 1-.729 1.75t-1.771.75Z"/></svg>

<svg xmlns="http://www.w3.org/2000/svg" height="40" width="40"><path d="M31.667 13.292Q29.875 13.292 28.604 12.042Q27.333 10.792 27.333 8.958Q27.333 7.167 28.604 5.896Q29.875 4.625 31.667 4.625Q33.458 4.625 34.729 5.896Q36 7.167 36 8.958Q36 10.792 34.729 12.042Q33.458 13.292 31.667 13.292ZM6.875 32.333Q5.833 32.333 5.104 31.583Q4.375 30.833 4.375 29.833V10.167Q4.375 9.167 5.104 8.417Q5.833 7.667 6.875 7.667H24.125Q24.042 8.167 24.021 8.667Q24 9.167 24.083 9.667Q24.208 11 24.75 12.188Q25.292 13.375 26.167 14.25L20 18.292L6.625 9.583L6.375 11.458L20 20.417L27.625 15.375Q28.5 16 29.521 16.312Q30.542 16.625 31.667 16.625Q32.75 16.625 33.75 16.333Q34.75 16.042 35.625 15.417V29.833Q35.625 30.833 34.896 31.583Q34.167 32.333 33.125 32.333Z"/></svg>
